X: 520
T: Zai liushu
L: 1/8
M: 2/4
K: F
c c A c [I:setbarnb 1]| 
f f e g | 
f f d f | 
c4 | 
c c/ B/ G B | 
c2d f | 
c4 | 
G/ G/ G/ G/ c z | 
G/ G/ G/ G/ C z | 
c> f d c | 
c DF2 | 
G G/ G/ F D | 
C2D F | 
C4 |]

@@@ Tune index: 9394
